flaticon/delivery/box-1.svg

<svg xmlns="http://www.w3.org/2000/svg" width="32" height="32" viewBox="0 0 24 24">
    <path d="M 23.585938 14.070312 C 23.835938 14.070312 24 13.902344 24 13.65625 L 24 12 C 24 11.75 23.835938 11.585938 23.585938 11.585938 L 18.621094 11.585938 L 18.621094 10.34375 C 18.621094 10.097656 18.457031 9.929688 18.207031 9.929688 L 17.792969 9.929688 L 17.792969 2.484375 L 18.207031 2.484375 C 18.457031 2.484375 18.621094 2.316406 18.621094 2.070312 L 18.621094 0.414062 C 18.621094 0.164062 18.457031 0 18.207031 0 L 5.792969 0 C 5.542969 0 5.378906 0.164062 5.378906 0.414062 L 5.378906 2.070312 C 5.378906 2.316406 5.542969 2.484375 5.792969 2.484375 L 6.207031 2.484375 L 6.207031 9.929688 L 5.792969 9.929688 C 5.542969 9.929688 5.378906 10.097656 5.378906 10.34375 L 5.378906 11.585938 L 0.414062 11.585938 C 0.164062 11.585938 0 11.75 0 12 L 0 13.65625 C 0 13.902344 0.164062 14.070312 0.414062 14.070312 L 0.828125 14.070312 L 0.828125 21.515625 L 0.414062 21.515625 C 0.164062 21.515625 0 21.683594 0 21.929688 L 0 23.585938 C 0 23.835938 0.164062 24 0.414062 24 L 23.585938 24 C 23.835938 24 24 23.835938 24 23.585938 L 24 21.929688 C 24 21.683594 23.835938 21.515625 23.585938 21.515625 L 23.171875 21.515625 L 23.171875 14.070312 Z M 6.707031 15.886719 L 4.914062 14.070312 L 8.523438 14.070312 Z M 6.125 16.46875 L 5.378906 17.214844 L 2.234375 14.070312 L 3.765625 14.070312 Z M 4.800781 17.792969 L 1.65625 20.9375 L 1.65625 14.648438 Z M 5.667969 18.082031 L 6.992188 16.757812 L 9.683594 14.070312 L 11.007812 14.070312 L 3.558594 21.515625 L 2.234375 21.515625 Z M 17.464844 15.886719 L 15.671875 14.070312 L 19.28125 14.070312 Z M 16.882812 16.46875 L 16.136719 17.214844 L 12.992188 14.070312 L 14.523438 14.070312 Z M 12.414062 14.648438 L 15.558594 17.792969 L 12.414062 20.9375 Z M 11.585938 20.921875 L 8.480469 17.753906 L 11.585938 14.648438 Z M 6.621094 19.613281 L 8.523438 21.515625 L 4.71875 21.515625 Z M 7.199219 19.035156 L 7.902344 18.332031 L 11.007812 21.515625 L 9.683594 21.515625 Z M 20.441406 14.070312 L 21.765625 14.070312 L 14.316406 21.515625 L 12.992188 21.515625 Z M 17.378906 19.613281 L 19.28125 21.515625 L 15.476562 21.515625 Z M 17.957031 19.035156 L 18.660156 18.332031 L 21.765625 21.515625 L 20.441406 21.515625 Z M 19.238281 17.753906 L 22.34375 14.648438 L 22.34375 20.921875 Z M 23.171875 13.242188 L 12.414062 13.242188 L 12.414062 12.414062 L 23.171875 12.414062 Z M 12.085938 4.300781 L 10.292969 2.484375 L 13.902344 2.484375 Z M 11.503906 4.882812 L 10.757812 5.628906 L 7.613281 2.484375 L 9.144531 2.484375 Z M 10.179688 6.207031 L 7.035156 9.351562 L 7.035156 3.0625 Z M 11.652344 5.890625 L 12.371094 5.171875 L 15.0625 2.484375 L 16.386719 2.484375 L 8.9375 9.929688 L 7.613281 9.929688 Z M 16.964844 3.0625 L 16.964844 9.335938 L 13.859375 6.167969 Z M 12 8.027344 L 13.902344 9.929688 L 10.097656 9.929688 Z M 12.578125 7.449219 L 13.28125 6.746094 L 16.386719 9.929688 L 15.0625 9.929688 Z M 6.207031 0.828125 L 17.792969 0.828125 L 17.792969 1.65625 L 6.207031 1.65625 Z M 6.207031 10.757812 L 17.792969 10.757812 L 17.792969 11.585938 L 6.207031 11.585938 Z M 0.828125 12.414062 L 11.585938 12.414062 L 11.585938 13.242188 L 0.828125 13.242188 Z M 0.828125 22.34375 L 11.585938 22.34375 L 11.585938 23.171875 L 0.828125 23.171875 Z M 23.171875 23.171875 L 12.414062 23.171875 L 12.414062 22.34375 L 23.171875 22.34375 Z M 23.171875 23.171875"/>
</svg>

<svg xmlns="http://www.w3.org/2000/svg" width="32" height="32" viewBox="0 0 24 24">
    <path d="M23.586 14.07c.25 0 .414-.168.414-.414V12c0-.25-.164-.414-.414-.414H18.62v-1.242c0-.246-.164-.414-.414-.414h-.414V2.484h.414c.25 0 .414-.168.414-.414V.414c0-.25-.164-.414-.414-.414H5.793c-.25 0-.414.164-.414.414V2.07c0 .246.164.414.414.414h.414V9.93h-.414c-.25 0-.414.168-.414.414v1.242H.414c-.25 0-.414.164-.414.414v1.656c0 .246.164.414.414.414h.414v7.446H.414c-.25 0-.414.168-.414.414v1.656c0 .25.164.414.414.414h23.172c.25 0 .414-.164.414-.414V21.93c0-.246-.164-.414-.414-.414h-.414V14.07zM6.707 15.887L4.914 14.07h3.61zm-.582.582l-.746.746-3.145-3.145h1.532zm-1.324 1.324l-3.145 3.145v-6.29zm.867.289l1.324-1.324 2.692-2.688h1.324l-7.45 7.446H2.235zm11.797-2.195l-1.793-1.817h3.61zm-.582.582l-.746.746-3.145-3.145h1.531zm-4.469-1.82l3.145 3.144-3.145 3.145zm-.828 6.273L8.48 17.754l3.106-3.106zM6.62 19.613l1.902 1.903H4.72zm.578-.578l.703-.703 3.106 3.184H9.684zm13.242-4.965h1.325l-7.45 7.446h-1.324zm-3.062 5.543l1.902 1.903h-3.804zm.578-.578l.703-.703 3.106 3.184H20.44zm1.281-1.281l3.106-3.106v6.274zm3.934-4.512H12.414v-.828h10.758zM12.086 4.301l-1.793-1.817h3.61zm-.582.582l-.746.746-3.145-3.145h1.532zM10.18 6.207L7.035 9.352v-6.29zm1.472-.316l.72-.72 2.69-2.687h1.325L8.937 9.93H7.614zm5.313-2.829v6.274l-3.106-3.168zM12 8.027l1.902 1.903h-3.804zm.578-.578l.703-.703 3.106 3.184h-1.325zM6.207.83h11.586v.827H6.207zm0 9.929h11.586v.828H6.207zM.828 12.414h10.758v.828H.828zm0 9.93h10.758v.828H.828zm22.344.828H12.414v-.828h10.758zm0 0"/>
</svg>
